svg/post_lamp.svg

<svg xmlns="http://www.w3.org/2000/svg" viewBox="0 0 24 24"><path d="m14 3-1-2h-2l-1 2-5 3h2l1 8 2 2 .5 1H9v6h6v-6h-1.5l.5-1 2-2 1-8h2zm.16 10H9.84L9 6h6z"/></svg>

<svg xmlns="http://www.w3.org/2000/svg" id="mdi-post-lamp" viewBox="0 0 24 24"><path d="M14 3L13 1H11L10 3L5 6H7L8 14L10 16L10.5 17H9V23H15V17H13.5L14 16L16 14L17 6H19L14 3M14.16 13H9.84L9 6H15L14.16 13Z" /></svg>
